img/icon-tumblr.svg

<svg width="16" height="17" viewBox="0 0 16 17" fill="none" xmlns="http://www.w3.org/2000/svg">
<g clip-path="url(#clip0_207_141)">
<path d="M9.70913 16.5C6.3138 16.5 5.0218 13.996 5.0218 12.226V6.998H3.41113V4.932C5.83113 4.05667 6.41913 1.868 6.55113 0.619333C6.56047 0.534 6.6278 0.5 6.66647 0.5H9.01113V4.576H12.2118V6.998H8.99847V11.978C9.00913 12.6453 9.24847 13.5587 10.4698 13.5587H10.5298C10.9505 13.5453 11.5205 13.422 11.8205 13.2793L12.5911 15.5627C12.3005 15.9867 10.9911 16.4787 9.82047 16.4987H9.7018L9.70913 16.5Z" fill="#36465D"/>
</g>
<defs>
<clipPath id="clip0_207_141">
<rect width="16" height="16" fill="white" transform="translate(0 0.5)"/>
</clipPath>
</defs>
</svg>

<svg width="16" height="17" fill="none" xmlns="http://www.w3.org/2000/svg"><g clip-path="url(#clip0_207_141)"><path d="M9.71 16.5c-3.396 0-4.688-2.504-4.688-4.274V6.998h-1.61V4.932c2.42-.875 3.007-3.064 3.14-4.313C6.56.534 6.627.5 6.665.5h2.345v4.076h3.2v2.422H8.999v4.98c.011.667.25 1.58 1.472 1.58h.06c.42-.013.99-.136 1.29-.279l.771 2.284c-.29.424-1.6.916-2.77.936H9.7l.008.001z" fill="#36465D"/></g><defs><clipPath id="clip0_207_141"><path fill="#fff" transform="translate(0 .5)" d="M0 0H16V16H0z"/></clipPath></defs></svg>
